lib/functional/system&devices/gear-six.svg

<svg xmlns="http://www.w3.org/2000/svg" fill="none" stroke="currentColor" aria-hidden="true" viewBox="0 0 32 32"><g id="Icon-GearSix"><g clip-path="url(#clip0_9_573)"><g id="size=md (32px)"><g id="GearSix"><path id="Vector" stroke-linecap="round" stroke-linejoin="round" stroke-width="2" d="M16 22C19.3137 22 22 19.3137 22 16C22 12.6863 19.3137 10 16 10C12.6863 10 10 12.6863 10 16C10 19.3137 12.6863 22 16 22Z"/><path id="Vector_2" stroke-linecap="round" stroke-linejoin="round" stroke-width="2" d="M24.675 10.0875C24.976 10.5183 25.2394 10.9742 25.4625 11.45L28.7 13.25C29.1043 15.0606 29.1086 16.9376 28.7125 18.75L25.4625 20.55C25.2394 21.0258 24.976 21.4817 24.675 21.9125L24.7375 25.625C23.3655 26.8753 21.7416 27.8173 19.975 28.3875L16.7875 26.475C16.2632 26.5125 15.7369 26.5125 15.2125 26.475L12.0375 28.375C10.2654 27.8151 8.63615 26.8768 7.26254 25.625L7.32504 21.925C7.02662 21.4882 6.7633 21.0284 6.53754 20.55L3.30004 18.75C2.89578 16.9394 2.89152 15.0624 3.28754 13.25L6.53754 11.45C6.76064 10.9742 7.0241 10.5183 7.32504 10.0875L7.26254 6.375C8.6346 5.12471 10.2585 4.18275 12.025 3.6125L15.2125 5.525C15.7369 5.4875 16.2632 5.4875 16.7875 5.525L19.9625 3.625C21.7347 4.18487 23.3639 5.12319 24.7375 6.375L24.675 10.0875Z"/></g></g></g></g><defs><clipPath id="clip0_9_573"><rect width="32" height="32" fill="white" rx="5"/></clipPath></defs></svg>

<svg xmlns="http://www.w3.org/2000/svg" fill="none" stroke="currentColor" aria-hidden="true" viewBox="0 0 32 32"><path stroke-linecap="round" stroke-linejoin="round" stroke-width="2" d="M16 22a6 6 0 1 0 0-12 6 6 0 0 0 0 12Z"/><path stroke-linecap="round" stroke-linejoin="round" stroke-width="2" d="M24.675 10.088c.301.43.564.886.787 1.362l3.238 1.8c.404 1.81.409 3.688.012 5.5l-3.25 1.8a9.188 9.188 0 0 1-.787 1.363l.063 3.712a13 13 0 0 1-4.763 2.763l-3.188-1.913a11.01 11.01 0 0 1-1.574 0l-3.175 1.9a12.823 12.823 0 0 1-4.775-2.75l.062-3.7a10.006 10.006 0 0 1-.787-1.375L3.3 18.75a12.75 12.75 0 0 1-.012-5.5l3.25-1.8c.223-.476.486-.932.787-1.362l-.062-3.713a13 13 0 0 1 4.762-2.762l3.188 1.912c.524-.037 1.05-.037 1.575 0l3.174-1.9a12.824 12.824 0 0 1 4.776 2.75l-.063 3.713Z"/></svg>
